X: 7
T: The Rollicking Boys Of Tandragee
R: jig
M: 6/8
L: 1/8
K: Emin
|: BAB E2B | BAB d2A | BAF D2E | FED EFA |
| BAB E2B | BAB def | edB AFA | BEE E3 :|
|: A | Bde f2e | def afe | f2e dBA | B2^c dBA|
| Bde f2e | def afe | fdB AFA | BEE E2:|


Tune 1392	Setting 20768

